X: 18518
T: I Ha'e A Wife O' Ma Ain
R: slip jig
M: 9/8
K: Edorian
EFE GGA B3|E2E G2A BGE|E2E GGA B3|D2D dcB AFD||
gag fgf e3|E3 G2A BGE|g2g fgf e3|D3 dcB AFD||

